images/square14.svg

<svg width="88" height="86" viewBox="0 0 88 86" xmlns="http://www.w3.org/2000/svg"><title>Group</title><g fill="#D7D7D7" fill-rule="evenodd"><path d="M40.89 50.06c.34-.6.745-.382 1.152-.28 12.39 3.105 24.783 6.216 37.172 9.328l6.266 1.57c-.224-.98-.71-1.72-.98-2.536-.193-.588-.563-.863-1.178-1.032-14.11-3.858-28.21-7.74-42.314-11.62-1.11-.308-.903-.315-1.433.614-3.006 5.298-6.006 10.6-9.008 15.9-.963 1.703-1.925 3.406-2.94 5.195 1.943.247 3.784.478 5.622.722 4.033.533 8.065 1.08 12.1 1.61 4.037.526 8.074 1.026 12.11 1.554 4.556.597 9.113 1.19 13.663 1.833 1.086.15 2.038.023 3-.528 1.06-.61 2.205-1.07 3.3-1.625.26-.133.613-.16.775-.567-14.9-2.366-29.778-4.73-44.816-7.117 2.584-4.474 5.066-8.738 7.508-13.024z"/><path d="M22.744 70.74l16.362-29.41 43.74 13.032c-.364-.856-.673-1.483-.898-2.14-.26-.747-.7-1.16-1.492-1.41-11.604-3.68-23.194-7.4-34.79-11.108-2.333-.747-4.676-1.457-6.998-2.233-.48-.16-.717-.105-.884.35-.047.13-.134.246-.2.37-6.386 11.67-12.77 23.34-19.148 35.013-.162.296-.39.57-.43.963 1.04.263 2.1.225 3.142.324 2.832.27 5.666.506 8.5.75 2.937.254 5.875.5 8.814.75 2.833.242 5.667.488 8.5.73 2.87.245 5.74.486 8.607.734 2.027.174 4.058.348 6.085.533.577.053 1.09-.06 1.61-.33 1.116-.58 2.265-1.096 3.392-1.66.183-.09.522-.08.444-.52-14.73-1.57-29.48-3.146-44.356-4.737z"/><path d="M13.963 77.19c-.048-.32.056-.422.122-.543 7.556-14.062 15.108-28.123 22.662-42.185.426-.792.432-.788 1.347-.476 13.673 4.664 27.343 9.33 41.02 13.98.307.103.61.357 1.065.205-.297-.69-.627-1.34-.847-2.022-.205-.644-.62-.93-1.23-1.146-4.71-1.677-9.41-3.39-14.112-5.086-8.98-3.242-17.962-6.48-26.946-9.72-.82-.296-.827-.297-1.243.485-.918 1.733-1.83 3.47-2.748 5.202-7.598 14.356-15.196 28.713-22.79 43.068-.192.36-.366.73-.595 1.19.472.047.845.096 1.22.118 1.542.085 3.086.163 4.63.24 6.105.3 12.21.588 18.314.9 6.176.318 12.35.655 18.522.996.716.04 1.37-.037 2.02-.396.914-.51 1.876-.935 2.815-1.4.17-.083.45-.082.352-.44-14.528-1.01-29.074-1.948-43.577-2.97z"/><path d="M6.62 81.76c9.427-18.102 18.86-36.2 28.293-54.298.463-.886.466-.887 1.376-.542 13.507 5.127 27.013 10.256 40.524 15.37.263.098.528.377.9.174-.262-.624-.537-1.227-.763-1.847-.216-.6-.593-.944-1.204-1.186-9.956-3.932-19.902-7.89-29.85-11.843-3.575-1.42-7.152-2.835-10.717-4.284-.528-.215-.85-.23-1.033.37-.04.13-.128.248-.192.372-3.408 6.634-6.817 13.268-10.223 19.902-6.52 12.707-13.04 25.418-19.573 38.12-.303.586-.463 1.144-.357 1.803.055.345.15.492.508.496.633.006 1.265.058 1.897.074 6.85.193 13.7.375 20.548.573 6.216.18 12.434.328 18.65.59 1.476.062 2.616-.513 3.79-1.312-14.314-.528-28.63-1.06-42.947-1.59.017-.416.23-.667.373-.94z"/><path d="M33.2 20.9c.494-.976.495-.975 1.513-.553l40.03 16.603c.182.075.35.244.61.033-.223-.527-.497-1.053-.667-1.61-.206-.675-.66-.99-1.278-1.256-13.138-5.66-26.268-11.34-39.4-17.015-1.15-.497-1.15-.497-1.712.627C22.932 36.49 13.576 55.255 4.184 74c-.647 1.29-1.172 2.517-.807 3.987.098.395.015.836.015 1.344.447-.156.465-.444.566-.644 9.754-19.26 19.5-38.526 29.243-57.79z"/><path d="M73.254 32.12c-.307-.732-.54-1.204-.703-1.7-.224-.68-.665-1.05-1.324-1.354C58.364 23.13 45.513 17.163 32.66 11.203c-.318-.147-.633-.302-.954-.442-.214-.092-.404-.078-.52.17-.088.19-.2.37-.29.558-9.278 19.07-18.553 38.136-27.827 57.203-.152.313-.315.615-.3.993.033.926.112 1.843.412 2.79L32.135 13.71l41.12 18.41zM87.405 64.93c-.228-.537-.35-1.09-1.103-1.243-2.573-.525-5.13-1.12-7.693-1.697-7.652-1.726-15.302-3.46-22.954-5.185-4.27-.962-8.546-1.897-12.812-2.882-.47-.11-.683-.032-.914.37-.83 1.462-1.7 2.9-2.587 4.405.37.213.682.25.992.31 3.132.594 6.264 1.193 9.396 1.793 5.336 1.02 10.67 2.04 16.004 3.062 5.333 1.02 10.67 2.03 16 3.075 2.515.495 2.508.527 4.762-.575.157-.076.317-.146.473-.225.785-.39.784-.39.435-1.208z"/><path d="M50.842 17.52c6.692 3.196 13.382 6.4 20.3 9.71-.216-.513-.36-.786-.447-1.077-.308-1.034-.963-1.645-1.957-2.13-9.662-4.7-19.298-9.457-28.94-14.2-3.045-1.498-6.086-3.002-9.13-4.502-.743-.364-.744-.36-1.12.418-.03.063-.063.125-.093.188-8.888 18.714-17.767 37.43-26.683 56.13-.655 1.376-.312 2.665-.072 4.026L30.663 7.895c6.79 3.24 13.486 6.428 20.18 9.624z"/><path d="M14.358 34.218c4.85-10.326 9.696-20.654 14.545-30.98.377-.804.384-.802 1.177-.408.125.062.254.12.378.184C42.55 9.124 54.64 15.238 66.732 21.348c.712.36 1.425.713 2.136 1.07-.194-.904-.368-1.677-1.247-2.127C56.374 14.53 45.144 8.734 33.91 2.946c-1.555-.802-3.114-1.597-4.66-2.418-.378-.202-.626-.202-.87.184-.338.53-.766.99-1.036 1.577-2.223 4.833-4.468 9.654-6.708 14.48C14.504 29.97 8.372 43.173 2.24 56.376c-.417.9-.426 2.66.005 3.603.102-.206.198-.39.286-.58 3.944-8.393 7.887-16.787 11.828-25.182zM21.566 9.405c-.868 1.18-1.953 2.205-2.573 3.57C13.32 25.454 7.655 37.937 1.943 50.4c-.6 1.308-.392 2.535-.26 3.975 1.725-3.1 21.188-45.782 21.243-46.582-.575.455-.95 1.056-1.36 1.612zM15.104 17.72c-.544.44-.91 1.046-1.332 1.59-.83 1.077-1.707 2.104-2.27 3.385C8.206 30.18 4.88 37.65 1.51 45.102c-.548 1.213-.393 2.352-.07 3.582l13.87-30.814-.208-.15zM5.334 30.423c-1.362 3.143-2.68 6.307-4.125 9.41-.53 1.134-.564 2.19-.252 3.477.798-1.178 7.362-16.188 7.366-16.976-1.02 1.345-2.298 2.495-2.99 4.09zM2.424 33.738c-.618.785-1.234 1.572-1.854 2.355-.11.14-.21.288-.197.47.043.623.098 1.247.15 1.87.06.005.12.01.183.018l1.958-4.605-.24-.107z"/></g></svg>

<?xml version="1.0" encoding="UTF-8" standalone="no"?>
<svg width="88px" height="86px" viewBox="0 0 88 86" version="1.1" xmlns="http://www.w3.org/2000/svg" xmlns:xlink="http://www.w3.org/1999/xlink" xmlns:sketch="http://www.bohemiancoding.com/sketch/ns">
    <!-- Generator: Sketch 3.4.1 (15681) - http://www.bohemiancoding.com/sketch -->
    <title>Group</title>
    <desc>Created with Sketch.</desc>
    <defs></defs>
    <g id="Page-1" stroke="none" stroke-width="1" fill="none" fill-rule="evenodd" sketch:type="MSPage">
        <g id="Group" sketch:type="MSLayerGroup" fill="#D7D7D7">
            <path d="M40.89,50.059 C41.229,49.459 41.635,49.678 42.042,49.781 C54.433,52.885 66.825,55.996 79.214,59.108 C81.269,59.623 83.324,60.137 85.48,60.677 C85.256,59.697 84.77,58.959 84.5,58.142 C84.307,57.554 83.937,57.279 83.322,57.11 C69.213,53.252 55.111,49.371 41.008,45.489 C39.897,45.182 40.105,45.175 39.575,46.104 C36.569,51.402 33.569,56.705 30.567,62.005 C29.604,63.707 28.642,65.41 27.628,67.199 C29.57,67.447 31.411,67.678 33.249,67.922 C37.283,68.455 41.315,69.003 45.351,69.532 C49.387,70.058 53.424,70.558 57.459,71.086 C62.016,71.683 66.573,72.277 71.123,72.919 C72.209,73.069 73.161,72.943 74.122,72.392 C75.184,71.782 76.328,71.321 77.423,70.767 C77.684,70.634 78.036,70.608 78.198,70.2 C63.298,67.834 48.42,65.471 33.382,63.083 C35.966,58.609 38.448,54.345 40.89,50.059 L40.89,50.059 Z" id="Shape" sketch:type="MSShapeGroup"></path>
            <path d="M22.744,70.74 C28.231,60.878 33.67,51.101 39.106,41.331 C53.653,45.665 68.13,49.977 82.847,54.362 C82.482,53.506 82.173,52.879 81.948,52.223 C81.688,51.475 81.247,51.063 80.456,50.812 C68.852,47.131 57.262,43.411 45.666,39.704 C43.333,38.957 40.99,38.247 38.668,37.471 C38.187,37.31 37.951,37.365 37.784,37.821 C37.737,37.95 37.65,38.066 37.583,38.189 C31.198,49.86 24.815,61.53 18.436,73.203 C18.274,73.499 18.046,73.772 18.005,74.166 C19.045,74.429 20.106,74.391 21.148,74.49 C23.98,74.759 26.814,74.996 29.647,75.24 C32.585,75.494 35.523,75.739 38.462,75.991 C41.295,76.232 44.129,76.478 46.963,76.721 C49.832,76.965 52.701,77.206 55.569,77.454 C57.597,77.628 59.628,77.802 61.655,77.987 C62.232,78.04 62.745,77.928 63.264,77.656 C64.381,77.077 65.53,76.561 66.657,75.998 C66.84,75.908 67.179,75.917 67.101,75.478 C52.37,73.907 37.621,72.331 22.744,70.74 L22.744,70.74 Z" id="Shape" sketch:type="MSShapeGroup"></path>
            <path d="M13.963,77.189 C13.915,76.871 14.019,76.768 14.085,76.647 C21.641,62.585 29.193,48.524 36.747,34.462 C37.173,33.67 37.179,33.674 38.094,33.986 C51.767,38.65 65.437,43.317 79.115,47.965 C79.421,48.069 79.724,48.323 80.179,48.171 C79.883,47.48 79.553,46.831 79.333,46.148 C79.128,45.504 78.712,45.219 78.104,45.002 C73.394,43.325 68.694,41.613 63.991,39.916 C55.01,36.674 46.028,33.435 37.044,30.195 C36.223,29.9 36.217,29.899 35.801,30.681 C34.882,32.413 33.969,34.149 33.052,35.882 C25.454,50.238 17.856,64.595 10.261,78.95 C10.07,79.311 9.896,79.679 9.667,80.14 C10.139,80.187 10.512,80.236 10.886,80.258 C12.429,80.343 13.973,80.421 15.517,80.498 C21.622,80.798 27.727,81.086 33.831,81.399 C40.006,81.716 46.179,82.053 52.352,82.394 C53.068,82.434 53.722,82.357 54.371,81.998 C55.286,81.488 56.248,81.063 57.187,80.599 C57.356,80.515 57.637,80.516 57.539,80.158 C43.012,79.148 28.466,78.21 13.963,77.189 L13.963,77.189 Z" id="Shape" sketch:type="MSShapeGroup"></path>
            <path d="M6.621,81.759 C16.047,63.658 25.481,45.56 34.913,27.462 C35.376,26.576 35.379,26.575 36.289,26.92 C49.797,32.047 63.303,37.176 76.814,42.289 C77.077,42.388 77.342,42.667 77.713,42.464 C77.452,41.84 77.177,41.237 76.951,40.617 C76.734,40.018 76.357,39.673 75.746,39.431 C65.79,35.498 55.844,31.541 45.897,27.587 C42.321,26.167 38.744,24.752 35.179,23.303 C34.652,23.088 34.329,23.074 34.147,23.672 C34.107,23.804 34.019,23.921 33.955,24.045 C30.547,30.679 27.138,37.313 23.732,43.947 C17.211,56.654 10.693,69.365 4.159,82.067 C3.857,82.653 3.697,83.211 3.803,83.87 C3.858,84.215 3.954,84.362 4.311,84.366 C4.943,84.372 5.575,84.424 6.207,84.44 C13.056,84.633 19.906,84.815 26.755,85.013 C32.971,85.192 39.189,85.341 45.404,85.602 C46.881,85.665 48.021,85.09 49.195,84.291 C34.881,83.762 20.566,83.231 6.248,82.699 C6.265,82.284 6.479,82.033 6.621,81.759 L6.621,81.759 Z" id="Shape" sketch:type="MSShapeGroup"></path>
            <path d="M33.201,20.899 C33.694,19.924 33.695,19.925 34.713,20.347 C48.056,25.881 61.4,31.415 74.742,36.95 C74.925,37.025 75.093,37.194 75.352,36.983 C75.13,36.456 74.856,35.93 74.686,35.372 C74.48,34.698 74.026,34.383 73.408,34.117 C60.27,28.456 47.14,22.777 34.008,17.102 C32.857,16.605 32.857,16.605 32.296,17.729 C22.932,36.49 13.576,55.256 4.184,74.002 C3.537,75.293 3.012,76.519 3.377,77.989 C3.475,78.385 3.392,78.826 3.392,79.334 C3.839,79.178 3.857,78.89 3.958,78.69 C13.712,59.431 23.457,40.164 33.201,20.899 L33.201,20.899 Z" id="Shape" sketch:type="MSShapeGroup"></path>
            <path d="M73.254,32.119 C72.947,31.388 72.714,30.916 72.551,30.421 C72.326,29.74 71.885,29.371 71.226,29.066 C58.364,23.129 45.513,17.163 32.659,11.203 C32.342,11.056 32.027,10.901 31.706,10.761 C31.492,10.668 31.302,10.682 31.186,10.931 C31.098,11.121 30.987,11.3 30.895,11.488 C21.618,30.557 12.343,49.624 3.069,68.691 C2.918,69.003 2.755,69.305 2.769,69.683 C2.803,70.609 2.882,71.526 3.182,72.472 C12.827,52.896 22.472,33.323 32.135,13.71 C45.802,19.83 59.416,25.924 73.254,32.119 L73.254,32.119 Z" id="Shape" sketch:type="MSShapeGroup"></path>
            <path d="M87.405,64.929 C87.177,64.393 87.056,63.84 86.302,63.687 C83.729,63.162 81.171,62.567 78.609,61.99 C70.958,60.264 63.308,58.529 55.656,56.805 C51.386,55.843 47.11,54.908 42.844,53.923 C42.373,53.814 42.161,53.891 41.93,54.294 C41.099,55.755 40.231,57.193 39.343,58.698 C39.712,58.911 40.025,58.948 40.335,59.009 C43.467,59.602 46.599,60.201 49.731,60.801 C55.066,61.821 60.399,62.84 65.734,63.862 C71.067,64.883 76.404,65.893 81.733,66.937 C84.249,67.432 84.242,67.464 86.496,66.362 C86.653,66.286 86.813,66.216 86.969,66.137 C87.755,65.747 87.754,65.747 87.405,64.929 L87.405,64.929 Z" id="Shape" sketch:type="MSShapeGroup"></path>
            <path d="M50.842,17.519 C57.534,20.716 64.224,23.92 71.141,27.23 C70.926,26.717 70.782,26.444 70.695,26.153 C70.387,25.119 69.732,24.508 68.738,24.024 C59.076,19.323 49.44,14.566 39.798,9.823 C36.753,8.325 33.712,6.821 30.667,5.321 C29.925,4.956 29.924,4.961 29.549,5.738 C29.518,5.801 29.485,5.863 29.455,5.926 C20.567,24.64 11.688,43.356 2.772,62.056 C2.117,63.432 2.46,64.721 2.7,66.082 C12.016,46.697 21.332,27.311 30.663,7.895 C37.454,11.134 44.149,14.323 50.842,17.519 L50.842,17.519 Z" id="Shape" sketch:type="MSShapeGroup"></path>
            <path d="M14.358,34.218 C19.207,23.892 24.054,13.564 28.903,3.238 C29.28,2.434 29.287,2.436 30.08,2.83 C30.205,2.892 30.334,2.951 30.458,3.014 C42.55,9.125 54.641,15.238 66.732,21.348 C67.444,21.707 68.157,22.061 68.868,22.417 C68.674,21.514 68.5,20.741 67.621,20.291 C56.373,14.529 45.143,8.733 33.908,2.945 C32.353,2.143 30.794,1.348 29.249,0.527 C28.87,0.325 28.622,0.325 28.377,0.711 C28.04,1.24 27.612,1.7 27.342,2.287 C25.119,7.12 22.874,11.941 20.634,16.766 C14.503,29.97 8.372,43.174 2.24,56.376 C1.823,57.276 1.814,59.038 2.245,59.98 C2.347,59.774 2.443,59.589 2.531,59.399 C6.474,51.007 10.417,42.613 14.358,34.218 L14.358,34.218 Z" id="Shape" sketch:type="MSShapeGroup"></path>
            <path d="M21.566,9.405 C20.698,10.586 19.613,11.61 18.993,12.974 C13.321,25.454 7.655,37.938 1.942,50.4 C1.342,51.708 1.551,52.935 1.684,54.375 C3.408,51.276 22.871,8.593 22.926,7.793 C22.351,8.248 21.975,8.849 21.566,9.405 L21.566,9.405 Z" id="Shape" sketch:type="MSShapeGroup"></path>
            <path d="M15.104,17.719 C14.56,18.161 14.193,18.766 13.772,19.311 C12.943,20.387 12.065,21.414 11.501,22.695 C8.207,30.179 4.882,37.651 1.512,45.102 C0.964,46.315 1.119,47.454 1.443,48.684 C6.065,38.413 10.689,28.141 15.311,17.87 C15.243,17.82 15.174,17.77 15.104,17.719 L15.104,17.719 Z" id="Shape" sketch:type="MSShapeGroup"></path>
            <path d="M5.334,30.423 C3.972,33.566 2.655,36.73 1.209,39.834 C0.68,40.967 0.646,42.024 0.958,43.31 C1.756,42.132 8.32,27.122 8.324,26.334 C7.303,27.679 6.026,28.829 5.334,30.423 L5.334,30.423 Z" id="Shape" sketch:type="MSShapeGroup"></path>
            <path d="M2.424,33.738 C1.806,34.523 1.19,35.31 0.57,36.093 C0.459,36.234 0.36,36.381 0.373,36.563 C0.416,37.186 0.471,37.81 0.522,38.433 C0.584,38.438 0.644,38.444 0.706,38.451 C1.359,36.915 2.012,35.38 2.664,33.845 C2.584,33.809 2.504,33.773 2.424,33.738 L2.424,33.738 Z" id="Shape" sketch:type="MSShapeGroup"></path>
        </g>
    </g>
</svg>
